site/components/footer/youtube.svg

<?xml version="1.0" encoding="UTF-8" standalone="no"?>
<svg width="28px" height="20px" viewBox="0 0 28 20" version="1.1" xmlns="http://www.w3.org/2000/svg" xmlns:xlink="http://www.w3.org/1999/xlink">
    <!-- Generator: sketchtool 39.1 (31720) - http://www.bohemiancoding.com/sketch -->
    <title>E6923E1C-8F2C-43EF-8817-90AACB95E762</title>
    <desc>Created with sketchtool.</desc>
    <defs>
        <polygon id="path-1" points="27.0224603 9.51821693 27.0224603 19.021164 0 19.021164 0 9.51821693 0 0.0152698413 27.0224603 0.0152698413"></polygon>
    </defs>
    <g id="Symbols" stroke="none" stroke-width="1" fill="none" fill-rule="evenodd">
        <g id="Footer" transform="translate(-605.000000, -163.000000)">
            <g id="Youtube" transform="translate(605.000000, 163.000000)">
                <g>
                    <polygon id="Fill-1" fill="#000000" points="10.7202407 5.44191005 17.1234683 9.7177037 18.021828 9.25143386"></polygon>
                    <g id="Group-5" transform="translate(0.000000, 0.011190)">
                        <mask id="mask-2" fill="white">
                            <use xlink:href="#path-1"></use>
                        </mask>
                        <g id="Clip-4"></g>
                        <path d="M10.7214815,13.0233122 L10.7202381,5.43071958 L18.0218254,9.24024339 L10.7214815,13.0233122 Z M26.7525926,4.11540212 C26.7525926,4.11540212 26.488545,2.25325926 25.6783598,1.4332328 C24.6507937,0.356936508 23.4989947,0.351619048 22.9707937,0.288603175 C19.1893915,0.0152698413 13.5170899,0.0152698413 13.5170899,0.0152698413 L13.5053439,0.0152698413 C13.5053439,0.0152698413 7.8331746,0.0152698413 4.05164021,0.288603175 C3.5234127,0.351619048 2.37203704,0.356936508 1.34410053,1.4332328 C0.533888889,2.25325926 0.270238095,4.11540212 0.270238095,4.11540212 C0.270238095,4.11540212 0,6.30214815 0,8.48892063 L0,10.539 C0,12.7257196 0.270238095,14.9124656 0.270238095,14.9124656 C0.270238095,14.9124656 0.533888889,16.7746349 1.34410053,17.5946614 C2.37203704,18.6709312 3.72230159,18.6369101 4.32367725,18.7497143 C6.4855291,18.9570159 13.5112434,19.0211693 13.5112434,19.0211693 C13.5112434,19.0211693 19.1893915,19.0125979 22.9707937,18.7392646 C23.4989947,18.6762751 24.6507937,18.6709312 25.6783598,17.5946614 C26.488545,16.7746349 26.7525926,14.9124656 26.7525926,14.9124656 C26.7525926,14.9124656 27.0224603,12.7257196 27.0224603,10.539 L27.0224603,8.48892063 C27.0224603,6.30214815 26.7525926,4.11540212 26.7525926,4.11540212 L26.7525926,4.11540212 Z" id="Fill-3" fill="#FFFFFF" mask="url(#mask-2)"></path>
                    </g>
                </g>
            </g>
        </g>
    </g>
</svg>

<svg id="Layer_1" data-name="Layer 1" xmlns="http://www.w3.org/2000/svg" xmlns:xlink="http://www.w3.org/1999/xlink" width="27.02" height="19.03" viewBox="0 0 27.02 19.03"><defs><mask id="mask" x="0" y="0.03" width="27.02" height="19.01" maskUnits="userSpaceOnUse"><g id="mask-2"><polygon id="path-1" points="27.02 9.53 27.02 19.03 0 19.03 0 9.53 0 0.03 27.02 0.03 27.02 9.53" style="fill:#fff"/></g></mask></defs><title>youtube-s_test</title><g id="Symbols"><g id="Footer"><g id="Youtube"><polygon id="Fill-1" points="10.72 5.44 17.12 9.72 18.02 9.25 10.72 5.44"/><g id="Group-5"><g style="mask:url(#mask)"><path id="Fill-3" d="M10.72,13V5.44L18,9.25Zm16-8.91a5.85,5.85,0,0,0-1.07-2.68A3.86,3.86,0,0,0,23,.3C19.19,0,13.52,0,13.52,0h0S7.83,0,4.05.3A3.87,3.87,0,0,0,1.34,1.44,5.84,5.84,0,0,0,.27,4.13,40.87,40.87,0,0,0,0,8.5v2.05a40.87,40.87,0,0,0,.27,4.37,5.84,5.84,0,0,0,1.07,2.68,4.58,4.58,0,0,0,3,1.16C6.49,19,13.51,19,13.51,19s5.68,0,9.46-.28a3.86,3.86,0,0,0,2.71-1.14,5.85,5.85,0,0,0,1.07-2.68A40.92,40.92,0,0,0,27,10.55V8.5a40.92,40.92,0,0,0-.27-4.37h0Z" style="fill:#fff"/></g></g></g></g></g></svg>
